X: 28677
T: Mustard Seeds
R: jig
M: 6/8
K: Dmajor
|:A|DFA dcd|ecA G2 A|FAd dcd|e/f/gf e2 A|
DF/G/A dcd|ecA GFE|FAd GBd|Aec d2:|
e|fdA FAd|gec A2 G|FAd dcd|e/f/gf e^de|
fdA F/G/Ad|gec AGE|FAd GBd|Aec d2 e|
fdA F2 d|gec A2 G|F2 d dB/c/d|egf ecA|
D2 A dB/c/d|ecA G2 A|FAd G2 d|Aec d2||

